MonoIcons/scalable/status/mail-replied-symbolic.svg

<?xml version="1.0" encoding="UTF-8"?>
<svg height="16px" viewBox="0 0 16 16" width="16px" xmlns="http://www.w3.org/2000/svg">
    <g fill="#2e3436">
        <path d="m 8 0.984375 c -0.101562 0 -0.199219 0.003906 -0.300781 0.015625 h 0.601562 c -0.101562 -0.011719 -0.199219 -0.015625 -0.300781 -0.015625 z m 2.308594 2.109375 c 0.414062 0.082031 0.792968 0.25 1.089844 0.53125 c -0.25 -0.257812 -0.605469 -0.445312 -1.089844 -0.53125 z m 1.304687 0.757812 c 0.191407 0.28125 0.3125 0.589844 0.363281 0.867188 c -0.03125 -0.183594 -0.089843 -0.445312 -0.226562 -0.71875 c -0.023438 -0.046875 -0.105469 -0.097656 -0.136719 -0.148438 z m 2.289063 0.300782 c 0.109375 0.507812 0.097656 0.867187 0.097656 0.867187 v 7.980469 c 0 0.5625 -0.4375 1 -1 1 h -10 c -0.5625 0 -1 -0.4375 -1 -1 v -5.398438 l 4.890625 3.257813 c 0.671875 0.449219 1.546875 0.449219 2.21875 0 l 1.792969 -1.191406 c -0.285156 -0.191407 -0.515625 -0.453125 -0.671875 -0.753907 l -1.675781 1.117188 c -0.335938 0.222656 -0.773438 0.222656 -1.109376 0 l -5.167968 -3.449219 c -0.039063 -0.019531 -0.082032 -0.039062 -0.125 -0.050781 c 0.058594 -0.078125 0.132812 -0.148438 0.222656 -0.203125 l 0.074219 -0.046875 l -1.429688 -1.4375 c -0.640625 0.527344 -1.019531 1.316406 -1.019531 2.15625 v 6 c 0 1.644531 1.355469 3 3 3 h 10 c 1.644531 0 3 -1.355469 3 -3 v -6 c 0 -0.96875 -0.503906 -1.867188 -1.328125 -2.375 z m 0 0" fill-opacity="0.501961"/>
        <path d="m 13 8 c 0 0.550781 -0.449219 1 -1 1 s -1 -0.449219 -1 -1 v -3 c 0 -0.5 -0.199219 -0.894531 -1 -1 h -5 v 2 h -1 v -0.003906 c -0.265625 0 -0.519531 -0.105469 -0.707031 -0.289063 l -2 -2 c -0.390625 -0.390625 -0.390625 -1.023437 0 -1.414062 l 2 -2 c 0.1875 -0.183594 0.441406 -0.28906275 0.707031 -0.2851565 v -0.0078125 h 1 v 2 h 5 c 1.332031 0 2.273438 0.8125 2.644531 1.550781 c 0.371094 0.742188 0.355469 1.449219 0.355469 1.449219 z m 0 0"/>
    </g>
</svg>

<svg width="16" height="16" viewBox="0 0 16 16" fill="none" xmlns="http://www.w3.org/2000/svg">
<g clip-path="url(#clip0_231_1006)">
<path d="M8 0.984375C7.89844 0.984375 7.80078 0.988281 7.69922 1H8.30078C8.19922 0.988281 8.10156 0.984375 8 0.984375ZM10.3086 3.09375C10.7227 3.17578 11.1016 3.34375 11.3984 3.625C11.1484 3.36719 10.793 3.17969 10.3086 3.09375ZM11.6133 3.85156C11.8047 4.13281 11.9258 4.44141 11.9766 4.71875C11.9453 4.53516 11.8867 4.27344 11.75 4C11.7266 3.95312 11.6445 3.90234 11.6133 3.85156V3.85156ZM13.9023 4.15234C14.0117 4.66016 14 5.01953 14 5.01953V13C14 13.5625 13.5625 14 13 14H3C2.4375 14 2 13.5625 2 13V7.60156L6.89062 10.8594C7.5625 11.3086 8.4375 11.3086 9.10938 10.8594L10.9023 9.66797C10.6172 9.47656 10.3867 9.21484 10.2305 8.91406L8.55469 10.0312C8.21875 10.2539 7.78125 10.2539 7.44531 10.0312L2.27734 6.58203C2.23828 6.5625 2.19531 6.54297 2.15234 6.53125C2.21094 6.45312 2.28516 6.38281 2.375 6.32812L2.44922 6.28125L1.01953 4.84375C0.378906 5.37109 0 6.16016 0 7V13C0 14.6445 1.35547 16 3 16H13C14.6445 16 16 14.6445 16 13V7C16 6.03125 15.4961 5.13281 14.6719 4.625L13.9023 4.15234Z" fill="#2E3436" fill-opacity="0.5"/>
<path d="M13 8C13 8.55078 12.5508 9 12 9C11.4492 9 11 8.55078 11 8V5C11 4.5 10.8008 4.10547 10 4H5V6H4V5.99609C3.73437 5.99609 3.48047 5.89062 3.29297 5.70703L1.29297 3.70703C0.902344 3.31641 0.902344 2.68359 1.29297 2.29297L3.29297 0.292969C3.48047 0.109375 3.73437 0.00390625 4 0.0078125V0H5V2H10C11.332 2 12.2734 2.8125 12.6445 3.55078C13.0156 4.29297 13 5 13 5V8Z" fill="#2E3436"/>
</g>
<defs>
<clipPath id="clip0_231_1006">
<rect width="16" height="16" fill="white"/>
</clipPath>
</defs>
</svg>
